X: 78
T: Sibao langong
L: 1/8
M: 4/4
K: C
G2G c A G E D [I:setbarnb 1]| 
d2>g2 e d c d | 
dg2d e> d c A | 
A G F DG4 | 
A GA2d> g d c | 
A G A c2<F2D | 
cd2g A> c G E | 
D8 |]

@@@ Tune index: 8952
